src/assets/images/footer/vtex-logo.svg

<svg width="53" height="19" viewBox="0 0 53 19" fill="none" xmlns="http://www.w3.org/2000/svg">
<path d="M37.7959 7.28871H35.9252V13.6829C35.9252 13.8026 35.8222 13.9052 35.7021 13.9052H34.2605C34.1403 13.9052 34.0374 13.8026 34.0374 13.6829V7.28871H32.1495C32.098 7.28871 32.0294 7.27162 31.9951 7.23742C31.9607 7.20323 31.9264 7.15194 31.9264 7.08355V5.95517C31.9264 5.90388 31.9436 5.83549 31.9951 5.8013C32.0294 5.7671 32.098 5.73291 32.1495 5.75001H37.7959C37.916 5.75001 38.019 5.83549 38.019 5.95517V7.08355C38.019 7.20323 37.916 7.28871 37.7959 7.28871Z" fill="white"/>
<path d="M43.8027 13.8539C43.0647 13.9565 42.3096 14.0077 41.5716 13.9906C40.1471 13.9906 38.8943 13.6316 38.8943 11.6313V7.98969C38.8943 5.98937 40.1643 5.64744 41.5888 5.64744C42.3267 5.63034 43.0647 5.68163 43.8027 5.78421C43.9571 5.80131 44.0258 5.8697 44.0258 6.00647V7.03227C44.0258 7.15195 43.9228 7.25453 43.8027 7.25453H41.4858C40.9709 7.25453 40.7821 7.4255 40.7821 8.00679V8.9984H43.7169C43.837 8.9984 43.94 9.10098 43.94 9.22066V10.2636C43.94 10.3832 43.837 10.4858 43.7169 10.4858H40.7821V11.6484C40.7821 12.2126 40.9709 12.4007 41.4858 12.4007H43.8027C43.9228 12.4007 44.0258 12.5032 44.0258 12.6229V13.6487C44.0258 13.7684 43.9571 13.8368 43.8027 13.8539Z" fill="white"/>
<path d="M52.1092 13.9052H50.3587C50.2385 13.9223 50.1184 13.8539 50.0669 13.7342L48.5395 11.3407L47.1665 13.6829C47.0979 13.8197 47.012 13.9052 46.8919 13.9052H45.2615C45.2272 13.9052 45.1757 13.9052 45.1414 13.871C45.107 13.8368 45.0899 13.8026 45.0899 13.7513C45.0899 13.7171 45.107 13.7 45.107 13.6829L47.4926 9.71646L45.0727 5.95518C45.0555 5.93808 45.0555 5.90389 45.0555 5.88679C45.0555 5.80131 45.1414 5.73292 45.2272 5.75002H47.0292C47.1493 5.75002 47.2351 5.8526 47.3038 5.95518L48.7111 8.17775L50.0841 5.95518C50.1356 5.8355 50.2385 5.76711 50.3587 5.75002H51.9891C52.0749 5.75002 52.1607 5.80131 52.1607 5.88679C52.1607 5.90389 52.1436 5.93808 52.1436 5.95518L49.7408 9.75066L52.2465 13.6829C52.2637 13.7171 52.2809 13.7513 52.2809 13.7855C52.2637 13.8539 52.2122 13.9052 52.1092 13.9052Z" fill="white"/>
<path d="M29.2834 5.76712C29.1976 5.76712 29.1289 5.81841 29.1118 5.9039L27.5157 11.8023C27.4985 11.922 27.4642 11.9732 27.3612 11.9732C27.2583 11.9732 27.2239 11.922 27.2068 11.8023L25.6107 5.9039C25.5935 5.81841 25.5249 5.76712 25.4391 5.76712H23.8601C23.8086 5.76712 23.7572 5.78422 23.7228 5.83551C23.6885 5.8697 23.6713 5.92099 23.6885 5.97228C23.6885 5.97228 25.645 12.7426 25.6622 12.811C25.9196 13.6145 26.5546 14.0078 27.3612 14.0078C28.1335 14.0419 28.8372 13.5461 29.0603 12.811C29.0946 12.7255 30.9996 5.97228 30.9996 5.97228C31.0168 5.92099 30.9996 5.8697 30.9653 5.83551C30.931 5.80132 30.8795 5.76712 30.828 5.76712H29.2834Z" fill="white"/>
<path d="M20.359 0.279053H3.93474C3.33406 0.279053 2.78487 0.603891 2.49311 1.0997C2.18419 1.6126 2.16703 2.24518 2.44163 2.75808L4.0892 5.86969H1.10297C0.725399 5.86969 0.364991 6.05775 0.159044 6.38259C-0.0469032 6.70743 -0.0469034 7.11775 0.124719 7.45968L5.4107 17.41C5.59948 17.769 5.97705 17.9913 6.37179 17.9913C6.76652 17.9913 7.14409 17.769 7.33287 17.41L8.7745 14.7087L10.5765 18.111C10.8683 18.658 11.4518 19 12.0697 19C12.6875 19 13.271 18.658 13.5628 18.111L21.8007 2.6726C22.0753 2.15969 22.0581 1.54421 21.7492 1.0655C21.4746 0.569697 20.9426 0.279053 20.359 0.279053ZM13.0136 6.79291L9.40951 13.529C9.28937 13.7684 9.0491 13.9052 8.7745 13.9052C8.49991 13.9052 8.25963 13.7513 8.1395 13.529L4.58691 6.8613C4.48394 6.65614 4.48393 6.41678 4.60407 6.21162C4.72421 6.00646 4.94732 5.88678 5.17043 5.88678H12.4472C12.6703 5.88678 12.8763 5.98936 12.9793 6.17743C13.1166 6.36549 13.1166 6.60485 13.0136 6.79291Z" fill="white"/>
</svg>

<svg width="53" height="19" fill="none" xmlns="http://www.w3.org/2000/svg"><path d="M37.796 7.289h-1.87v6.394c0 .12-.104.222-.224.222h-1.441a.227.227 0 01-.224-.222V7.289H32.15c-.052 0-.12-.017-.155-.052a.216.216 0 01-.069-.153V5.955c0-.051.018-.12.07-.154.033-.034.102-.068.154-.051h5.646c.12 0 .223.085.223.205v1.129c0 .12-.103.205-.223.205zm6.007 6.565c-.738.103-1.493.154-2.231.137-1.425 0-2.678-.36-2.678-2.36V7.99c0-2 1.27-2.343 2.695-2.343.738-.017 1.476.035 2.214.137.154.017.223.086.223.222v1.026c0 .12-.103.223-.223.223h-2.317c-.515 0-.704.17-.704.752v.991h2.935c.12 0 .223.103.223.223v1.043c0 .12-.103.222-.223.222h-2.935v1.162c0 .565.189.753.704.753h2.317c.12 0 .223.102.223.222v1.026c0 .12-.069.188-.223.205zm8.307.051h-1.751a.278.278 0 01-.292-.17l-1.528-2.394-1.373 2.342c-.068.137-.154.222-.274.222h-1.63c-.035 0-.086 0-.12-.034a.155.155 0 01-.052-.12c0-.034.017-.051.017-.068l2.386-3.967-2.42-3.76c-.017-.018-.017-.052-.017-.07 0-.085.085-.153.171-.136h1.802c.12 0 .206.103.275.205l1.407 2.223 1.373-2.223a.34.34 0 01.275-.205h1.63c.086 0 .172.051.172.137 0 .017-.017.051-.017.068L49.74 9.751l2.505 3.932a.242.242 0 01.035.103c-.017.068-.069.12-.172.12zM29.283 5.767a.167.167 0 00-.171.137l-1.596 5.898c-.017.12-.052.171-.155.171-.103 0-.137-.051-.154-.17l-1.596-5.9a.167.167 0 00-.172-.136H23.86a.156.156 0 00-.137.069.13.13 0 00-.034.136s1.956 6.77 1.973 6.839c.258.803.893 1.197 1.7 1.197a1.7 1.7 0 001.698-1.197c.035-.085 1.94-6.839 1.94-6.839a.133.133 0 00-.035-.136c-.034-.035-.085-.069-.137-.069h-1.545zM20.359.28H3.935c-.6 0-1.15.324-1.442.82a1.683 1.683 0 00-.051 1.658L4.089 5.87H1.103c-.378 0-.738.188-.944.513A1.095 1.095 0 00.125 7.46l5.286 9.95c.188.359.566.581.96.581.396 0 .773-.222.962-.581l1.441-2.701 1.803 3.402a1.7 1.7 0 002.986 0L21.8 2.673a1.584 1.584 0 00-.052-1.608C21.475.57 20.943.28 20.36.28zm-7.345 6.513L9.41 13.529a.691.691 0 01-.636.376.723.723 0 01-.634-.376L4.587 6.861a.663.663 0 01.584-.975h7.276c.223 0 .43.103.532.291a.573.573 0 01.035.616z" fill="#fff"/></svg>
